X:1
T:Title
%%score 1 ( 2 3 )
L:1/8
Q:1/4=96
M:3/4
K:C
V:1 treble nm="MusicXML Part"
V:2 bass nm="MusicXML Part"
V:3 bass 
V:1
 D4 C2 | D2 F4 | E4 D2 | E6 | E4 F2 | (G2 E2) F2 | D4 C2 | D6 | E4 F2 | G4 F2 | E2 D4 | E6 | %12
w: In na-|ta- li|do- mi-|ni|Gau- dent|om- * nes|an- ge-|li|Et can-|tant cum|iu- bi-|lo|
w: Na- tus|est E-|man- u-|el|Quem pre-|dix- * it|Gab- ri-|el|Tes- tis|est E-|ze- chi-|el|
w: Chris- tus|na- tus|ho- di-|e,|ex Ma-|ri- * a|vir- gi-|nae|non con-|cep- tus|se- mi-|ne|
 G4 A2 | B4 A2 | G2 F4 | G6 | A4 A2 | (G2 F2) E2 | D4 C2 | D6 | E4 F2 | (G2 E2) F2 | E4 D2 | E6 | %24
w: Glo- ri-|am u-|ni de-|o.|Vir- go|de- * um|ge- nu-|it,|Vir- go|de- * um|prep- er-|it,|
w: A pat-|re pro-|cess- it|El.|Vir- go|de- * um|ge- nu-|it,|Vir- go|de- * um|prep- er-|it,|
w: a- par-|u- it|ho- di-|e.|Vir- go|de- * um|ge- nu-|it,|Vir- go|de- * um|prep- er-|it,|
 E4 F2 | (G2 E2) F2 | D2 C4 | D6 |] %28
w: Vir- go|sem- * per|in- tac-|ta.|
w: Vir- go|sem- * per|in- tac-|ta.|
w: Vir- go|sem- * per|in- tac-|ta.|
V:2
 A,4 G,2 | A,2 C4 | B,4 A,2 | B,6 | C4 C2 | (D2 B,2) C2 | A,4 G,2 | A,6 | C4 C2 | D4 C2 | A,2 B,4 | %11
 C6 | E4 E2 | D4 E2 | D2 C4 | D6 | D4 D2 | (A,2 C2) B,2 | A,4 G,2 | A,6 | A,4 B,2 | (E2 D2) C2 | %22
 B,4 A,2 | B,6 | C4 C2 | B,4 C2 | A,2 G,4 | A,6 |] %28
V:3
 D,4 E,2 | D,2 A,4 | G,4 F,2 | E,6 | A,4 A,2 | G,4 A,2 | F,4 E,2 | D,6 | A,4 A,2 | G,4 G,2 | %10
 A,2 B,4 | C6 | C4 C2 | G,4 C2 | B,2 A,4 | G,6 | D,4 D,2 | A,2- A,2 G,2 | F,4 E,2 | D,6 | A,4 A,2 | %21
 G,4 A,2 | G,4 F,2 | E,6 | A,4 A,2 | G,4 A,2 | F,2 E,4 | D,6 |] %28

